X:1
T:Title
%%score { ( 1 3 ) | ( 2 4 ) }
L:1/8
Q:1/4=94
M:4/4
K:G
V:1 treble nm="Grand Piano"
V:3 treble 
V:2 bass 
V:4 bass 
V:1
 [B,G]>[A,F] [B,G][CA] [DB]2 [B,G][B,D] | E>^D E[CF] [B,G]4 | A>^G AB [Fc]2 [DA][DF] | %3
w: W.~J.~Kirkpatrick * * * * * *|||
 [^CA]>[CG] [A,CF][K:bass][G,CE] [F,D]4 | [G,B,G]>[A,F] [B,G][CA] [DB]2 [B,G][DF] | %5
w: ||
 E>E A[DB] [Ec]4 | A>A B[Dc] [Dd]2 [DG][Ec] | BAGF [B,DG]4 | [Fd]>[Fd] [Gd]2 [Fd]>[Fd] [Gd]2 | %9
w: ||||
 [Fd][Fd] [Fd]>[DFc] [DGB]4 | [^DFB]>[DFB] [EGB]2 [DFB]>[DFB] [EGB]2 | ^c>c cc [Fd]4 | %12
w: |||
 d>c Bc d2 GG | [Gc]>[GB] [Gc][Gd] [Ge]3 [Ge] | d>c Be d>c B[EGc] | [GB]2 [FA]2 [G,B,DG]4 |] %16
w: ||||
V:2
 [G,,D,]>[G,,D,] [G,,D,][G,,D,] [G,,G,]2 [G,,D,][G,,G,] | [C,G,C]>[C,G,C] [C,G,C][A,,D,] [G,,D,]4 | %2
 [D,F,D]>[D,=F,D] [D,^F,D][D,G,D] [D,A,]2 [D,F,][D,F,] | [A,,E,]>[A,,E,] A,,A,, D,4 | %4
 G,,>[G,,D,] [G,,D,][G,,D,] [G,,G,]2 [G,,D,][B,,G,] | [C,G,C]>[C,G,C] [C,E,C][B,,^G,] [A,,A,]4 | %6
 [D,F,D]>[F,D] [D,G,D][C,A,] [B,,G,]2 [B,,G,][C,G,] | [D,G,D][D,CD][D,B,D][D,A,D] [G,,G,]4 | %8
 [D,A,]>[D,A,] [G,B,]2 [D,A,]>[D,A,] [G,B,]2 | [D,A,][D,A,] [D,A,]>D, G,4 | %10
 B,,>B,, E,2 B,,>B,, E,2 | [A,EG]>[A,EG] [A,EG][A,EG] [D,D]4 | %12
 [G,B,G]>[G,EG] [G,DG][G,CG] [G,B,G]2[K:bass] [G,B,D][=F,B,D] | %13
 [E,C]>[E,G,] [E,G,][D,B,] [C,C]3 [E,C] | %14
 [G,B,G]>[G,EG] [G,DG][G,CG] [G,B,G]>[G,EG] [G,DG][K:bass]C, | D,2 z C G,,4 |] %16
V:3
 x8 | x8 | x8 | x3[K:bass] x5 | x8 | x8 | x8 | x8 | x8 | x8 | x8 | x8 | x8 | x8 | x8 | D4 z4 |] %16
V:4
 x8 | x8 | x8 | x8 | x8 | x8 | x8 | x8 | x8 | x8 | x8 | x8 | x6[K:bass] x2 | x8 | x7[K:bass] x | %15
 z2 D,2 z4 |] %16

